X: 26874
T: Miners Of Wicklow, The
R: jig
M: 6/8
K: Dmajor
|:FGA ABc|dcB ABA|BGE EFG|FEF DED|
DFA ABc|dcB ABA|Bcd ecA|1 d3 d2A:|2 d3 d2e||
|:fdf ece|dcB ABA|BGE EFG|FEF DED|
fdf ece|dcB ABA|Bcd ecA|1 d3 d2e:|2 d3 d2A||

